X:1
T:Crowle, CM
T:Crowle, CM
T:Maurice Greene, 1724
T:Public Domain Courtesy of the Cyber Hymnal™
C:Maurice Greene, 1724
Z:Public Domain
Z:Courtesy of the Cyber Hymnal™
%%score ( 1 2 ) ( 3 4 )
L:1/8
M:3/4
K:Ab
V:1 treble 
V:2 treble 
V:3 bass 
V:4 bass 
V:1
 F2 | (c2 B2) [FA]2 | [=EG]4 [FA]2 | (G2 F2) [C=E]2 | [CF]4 [CA]2 | (G2 F2) [CG]2 | [FA]4 [FB]2 | %7
 [=Ec]4 [_Ec]2 | (G2 A2) [EB]2 | [Ec]4 [=EG]2 | ([FA]2 [CG]2) F2 | [C=E]4 [CA]2 | [Cc]4 [CA]2 | %13
 (G3 F) [C=E]2 | !fermata![CF]4 |] %15
V:2
 F2 | G4 x2 | x6 | D4 x2 | x6 | D4 x2 | x6 | x6 | E4 x2 | x6 | x4 (CB,) | x6 | x6 | D4 x2 | x4 |] %15
V:3
 [F,A,]2 | [=E,C]4 [F,C]2 | [C,C]4 [F,C]2 | (B,2 A,2) [C,G,]2 | [F,A,]4 [F,A,]2 | C4 [_E,C]2 | %6
 [F,C]4 [D,B,]2 | [C,G,]4 [A,,A,]2 | ([E,B,]2 [F,A,]2) [G,E]2 | [A,E]4 [G,B,]2 | C4 [D,F,]2 | %11
 [C,G,]4 [F,A,]2 | [=E,G,]4 [F,A,]2 | (B,3 A,) [C,G,]2 | !fermata![F,A,]4 |] %15
V:4
 x2 | x6 | x6 | B,,4 x2 | x6 | (=E,2 =D,2) x2 | x6 | x6 | x6 | x6 | (F,2 E,2) x2 | x6 | x6 | %13
 B,,4 x2 | x4 |] %15

